sequoia/src/components/Popups/PopupConnect/assets/binance.svg

<svg width="101" height="100" viewBox="0 0 101 100" fill="none" xmlns="http://www.w3.org/2000/svg">
<path d="M56.1512 70.6499V77.6587L50.0402 81.25L44.103 77.6587V70.6499L50.0402 74.2412L56.1512 70.6499ZM23.4531 46.4087L29.3903 50V62.0192L39.6139 68.1302V75.139L23.4531 65.6105V46.4087ZM76.6274 46.4087V65.6395L60.2928 75.168V68.1592L70.5164 62.0482V50L76.6274 46.4087ZM60.2638 36.8802L66.3748 40.4715V47.4803L56.1512 53.5913V65.8132L50.214 69.4045L44.2768 65.8132V53.5913L33.6767 47.4803V40.4715L39.7877 36.8802L50.0113 42.9912L60.2638 36.8802ZM33.7057 52.5197L39.6429 56.111V63.1198L33.7057 59.5285V52.5197ZM66.3748 52.5197V59.5285L60.4376 63.1198V56.111L66.3748 52.5197ZM29.3903 30.7692L35.5013 34.3605L29.3903 37.9518V44.9606L23.4531 41.3693V34.3605L29.3903 30.7692ZM70.6901 30.7692L76.8011 34.3605V41.3693L70.6901 44.9606V37.9518L64.7529 34.3605L70.6901 30.7692ZM50.0402 30.7692L56.1512 34.3605L50.0402 37.9808L44.103 34.3895L50.0402 30.7692ZM50.0402 18.75L66.3748 28.2785L60.4376 31.8698L50.214 25.7588L39.7877 31.8698L33.8794 28.2785L50.0402 18.75Z" fill="#F3BA2C"/>
</svg>

<svg width="101" height="100" fill="none" xmlns="http://www.w3.org/2000/svg"><path d="M56.15 70.65v7l-6.11 3.6-5.94-3.6v-7l5.94 3.6 6.11-3.6Zm-32.7-24.24L29.4 50v12.02l10.22 6.11v7l-16.16-9.52v-19.2Zm53.18 0v19.23l-16.34 9.53v-7.01l10.23-6.11V50l6.1-3.6Zm-16.37-9.53 6.11 3.6v7l-10.22 6.11v12.22l-5.94 3.6-5.93-3.6V53.6l-10.6-6.11v-7l6.1-3.6 10.23 6.11 10.25-6.11ZM33.71 52.52l5.93 3.6v7l-5.93-3.6v-7Zm32.66 0v7l-5.93 3.6v-7l5.93-3.6ZM29.4 30.77l6.11 3.6-6.11 3.58v7.01l-5.94-3.6v-7l5.94-3.6Zm41.3 0 6.11 3.6v7l-6.11 3.6v-7.02l-5.94-3.59 5.94-3.6Zm-20.65 0 6.11 3.6-6.11 3.61-5.94-3.59 5.94-3.62Zm0-12.02 16.33 9.53-5.93 3.59-10.23-6.11-10.42 6.11-5.91-3.6 16.16-9.52Z" fill="#F3BA2C"/></svg>
